brandFactory_export/1.Light/Lista de proyectos _1Light.svg

<?xml version="1.0" encoding="UTF-8"?>
<svg width="24px" height="24px" viewBox="0 0 24 24" version="1.1" xmlns="http://www.w3.org/2000/svg" xmlns:xlink="http://www.w3.org/1999/xlink">
    <title>1.Light/Lista de proyectos _1Light</title>
    <g id="Symbols" stroke="none" stroke-width="1" fill="none" fill-rule="evenodd">
        <g id="1.Light/Lista-de-proyectos-_1Light" fill="#5CB615" fill-rule="nonzero">
            <path d="M19.7630252,21.9226891 L19.7630252,1.70420168 C19.7630252,1.31092437 19.4470588,0.98487395 19.2857143,0.98487395 L4.48907563,0.98487395 C4.32773109,0.98487395 4.01176471,1.31092437 4.01176471,1.70420168 L4.01176471,21.9193277 C4.01176471,22.3294118 4.30084034,22.6386555 4.48907563,22.6386555 L19.2857143,22.6420168 C19.4739496,22.6386555 19.7630252,22.3327731 19.7630252,21.9226891 Z M19.2789916,0 C20.0453782,0 20.7478992,0.813445378 20.7478992,1.70420168 L20.7478992,21.9226891 C20.7478992,22.8302521 20.0621849,23.6235294 19.2789916,23.6235294 L4.49915966,23.6201681 C3.71596639,23.6201681 3.03024009,22.8268908 3.03024009,21.9193277 L3.03024009,1.70420168 C3.02689076,0.813445378 3.72941176,0 4.49579832,0 L19.2789916,0 Z M6.77478992,7.87563025 C6.2302521,7.87563025 5.78991597,7.43529412 5.78991597,6.8907563 C5.78991597,6.34621849 6.2302521,5.90588235 6.77478992,5.90588235 C7.31932773,5.90588235 7.75966387,6.34621849 7.75966387,6.8907563 C7.75966387,7.43529412 7.31932773,7.87563025 6.77478992,7.87563025 Z M6.77478992,10.8268908 C7.31932773,10.8268908 7.75966387,11.2672269 7.75966387,11.8117647 C7.75966387,12.3563025 7.31932773,12.7966387 6.77478992,12.7966387 C6.2302521,12.7966387 5.78991597,12.3563025 5.78991597,11.8117647 C5.78991597,11.2672269 6.23361345,10.8268908 6.77478992,10.8268908 L6.77478992,10.8268908 Z M10.2268908,7.87563025 C9.95462185,7.87563025 9.72941176,7.65714286 9.72941176,7.38487395 C9.72941176,7.11260504 9.9512605,6.89411765 10.2268908,6.89411765 L17.1042017,6.89411765 C17.3798319,6.89411765 17.6016807,7.11596639 17.6016807,7.38487395 C17.6016807,7.65378151 17.3798319,7.87563025 17.1042017,7.87563025 L10.2268908,7.87563025 Z M17.1042017,11.8117647 C17.3798319,11.8117647 17.6016807,12.0336134 17.6016807,12.302521 C17.6016807,12.5714286 17.3798319,12.7932773 17.1042017,12.7932773 L10.2268908,12.7932773 C9.95462185,12.7932773 9.72941176,12.5747899 9.72941176,12.302521 C9.72941176,12.0302521 9.9512605,11.8117647 10.2268908,11.8117647 L17.1042017,11.8117647 Z M6.77478992,15.7512605 C7.31932773,15.7512605 7.75966387,16.1915966 7.75966387,16.7361345 C7.75966387,17.2806723 7.31932773,17.7210084 6.77478992,17.7210084 C6.2302521,17.7210084 5.78991597,17.2773109 5.78991597,16.7327731 C5.78991597,16.1882353 6.23361345,15.7512605 6.77478992,15.7512605 Z M17.1042017,16.7327731 C17.3798319,16.7327731 17.6016807,16.9546218 17.6016807,17.2235294 C17.6016807,17.4957983 17.3798319,17.7142857 17.1042017,17.7142857 L10.2268908,17.7142857 C9.95462185,17.7142857 9.72941176,17.4957983 9.72941176,17.2235294 C9.72941176,16.9512605 9.9512605,16.7327731 10.2268908,16.7327731 L17.1042017,16.7327731 L17.1042017,16.7327731 Z" id="Lista-de-proyectos-_1Light"></path>
        </g>
    </g>
</svg>

<svg width="24" height="24" viewBox="0 0 24 24" xmlns="http://www.w3.org/2000/svg"><path d="M19.763 21.923V1.704c0-.393-.316-.72-.477-.72H4.489c-.161 0-.477.327-.477.72V21.92c0 .41.289.72.477.72l14.797.003c.188-.003.477-.31.477-.72zM19.279 0c.766 0 1.469.813 1.469 1.704v20.219c0 .907-.686 1.7-1.469 1.7l-14.78-.003c-.783 0-1.469-.793-1.469-1.7V1.703C3.027.814 3.73 0 4.496 0h14.783zM6.775 7.876a.984.984 0 11-.002-1.969.984.984 0 01.002 1.969zm0 2.95a.984.984 0 11.001 1.97.984.984 0 01-.001-1.97zm3.452-2.95a.495.495 0 01-.498-.491c0-.272.222-.49.498-.49h6.877c.276 0 .498.221.498.49s-.222.49-.498.49h-6.877zm6.877 3.936c.276 0 .498.222.498.49 0 .27-.222.491-.498.491h-6.877a.495.495 0 01-.498-.49c0-.273.222-.491.498-.491h6.877zm-10.33 3.94a.984.984 0 11.002 1.967.984.984 0 01-.001-1.968zm10.33.98c.276 0 .498.223.498.492 0 .272-.222.49-.498.49h-6.877a.495.495 0 01-.498-.49c0-.273.222-.491.498-.491h6.877z" fill="#5CB615" fill-rule="nonzero"/></svg>
